gama.ui.shared/icons_svg/dark/navigator/new.folder2.svg

<svg height="25" viewBox="-274.997 -3555.419 25 25" width="25" xmlns="http://www.w3.org/2000/svg"><g fill="none"><path d="m-270.65697-3554.9187h16.32c2.12077 0 3.84 1.7192 3.84 3.84v16.32c0 2.1207-1.71923 3.84-3.84 3.84h-16.32c-2.12077 0-3.84-1.7193-3.84-3.84v-16.32c0-2.1208 1.71923-3.84 3.84-3.84z" fill="#666"/><path d="m-270.65697-3554.9187h16.32c2.12077 0 3.84 1.7192 3.84 3.84v16.32c0 2.1207-1.71923 3.84-3.84 3.84h-16.32c-2.12077 0-3.84-1.7193-3.84-3.84v-16.32c0-2.1208 1.71923-3.84 3.84-3.84z" stroke="#fff" stroke-linecap="round" stroke-linejoin="round" stroke-width=".25"/><path d="m-262.49697-3541.3187v2c0 .2209-.17908.4-.4.4-.22091 0-.4-.1791-.4-.4v-2h-2c-.22091 0-.4-.1791-.4-.4s.17909-.4.4-.4h2v-2c0-.2209.17909-.4.4-.4.22092 0 .4.1791.4.4v2h2c.22092 0 .4.1791.4.4s-.17908.4-.4.4zm-6-8h5.2c.88367 0 1.6.7163 1.6 1.6 0 .4417.35817.8.8.8h4.4c1.10457 0 2 .8954 2 2v6.4c0 1.1047-.89543 2-2 2h-12c-1.10457 0-2-.8953-2-2v-8.8c0-1.1046.89543-2 2-2zm0 .8c-.66273 0-1.2.5373-1.2 1.2v8.8c0 .6627.53727 1.2 1.2 1.2h12c.66275 0 1.2-.5373 1.2-1.2v-6.4c0-.6627-.53725-1.2-1.2-1.2h-4.4c-.88365 0-1.6-.7163-1.6-1.6 0-.4418-.35817-.8-.8-.8z" fill="#8eed62"/></g></svg>

<?xml version="1.0" encoding="UTF-8" standalone="no"?>
<!DOCTYPE svg PUBLIC "-//W3C//DTD SVG 1.1//EN" "http://www.w3.org/Graphics/SVG/1.1/DTD/svg11.dtd">
<svg xmlns="http://www.w3.org/2000/svg" xmlns:xl="http://www.w3.org/1999/xlink" version="1.1" xmlns:dc="http://purl.org/dc/elements/1.1/" viewBox="-274.99697 -3555.4187 25 25" width="25" height="25">
  <defs/>
  <g id="SOURCES" stroke-opacity="1" fill="none" stroke="none" fill-opacity="1" stroke-dasharray="none">
    <title>SOURCES</title>
    <g id="SOURCES_Dark">
      <title>Dark</title>
      <g id="Graphic_11730">
        <title>views/view.other</title>
        <path d="M -270.65697 -3554.9187 L -254.33697 -3554.9187 C -252.2162 -3554.9187 -250.49697 -3553.1995 -250.49697 -3551.0787 L -250.49697 -3534.7587 C -250.49697 -3532.638 -252.2162 -3530.9187 -254.33697 -3530.9187 L -270.65697 -3530.9187 C -272.77774 -3530.9187 -274.49697 -3532.638 -274.49697 -3534.7587 L -274.49697 -3551.0787 C -274.49697 -3553.1995 -272.77774 -3554.9187 -270.65697 -3554.9187 Z" fill="#666"/>
        <path d="M -270.65697 -3554.9187 L -254.33697 -3554.9187 C -252.2162 -3554.9187 -250.49697 -3553.1995 -250.49697 -3551.0787 L -250.49697 -3534.7587 C -250.49697 -3532.638 -252.2162 -3530.9187 -254.33697 -3530.9187 L -270.65697 -3530.9187 C -272.77774 -3530.9187 -274.49697 -3532.638 -274.49697 -3534.7587 L -274.49697 -3551.0787 C -274.49697 -3553.1995 -272.77774 -3554.9187 -270.65697 -3554.9187 Z" stroke="white" stroke-linecap="round" stroke-linejoin="round" stroke-width=".25"/>
      </g>
      <g id="Graphic_11729">
        <path d="M -262.49697 -3541.3187 L -262.49697 -3539.3187 C -262.49697 -3539.0978 -262.67605 -3538.9187 -262.89697 -3538.9187 C -263.11788 -3538.9187 -263.29697 -3539.0978 -263.29697 -3539.3187 L -263.29697 -3541.3187 L -265.29697 -3541.3187 C -265.51788 -3541.3187 -265.69697 -3541.4978 -265.69697 -3541.7187 C -265.69697 -3541.9396 -265.51788 -3542.1187 -265.29697 -3542.1187 L -263.29697 -3542.1187 L -263.29697 -3544.1187 C -263.29697 -3544.3396 -263.11788 -3544.5187 -262.89697 -3544.5187 C -262.67605 -3544.5187 -262.49697 -3544.3396 -262.49697 -3544.1187 L -262.49697 -3542.1187 L -260.49697 -3542.1187 C -260.27605 -3542.1187 -260.09697 -3541.9396 -260.09697 -3541.7187 C -260.09697 -3541.4978 -260.27605 -3541.3187 -260.49697 -3541.3187 Z M -268.49697 -3549.3187 L -263.29697 -3549.3187 C -262.4133 -3549.3187 -261.69697 -3548.6024 -261.69697 -3547.7187 C -261.69697 -3547.277 -261.3388 -3546.9187 -260.89697 -3546.9187 L -256.49697 -3546.9187 C -255.3924 -3546.9187 -254.49697 -3546.0233 -254.49697 -3544.9187 L -254.49697 -3538.5187 C -254.49697 -3537.414 -255.3924 -3536.5187 -256.49697 -3536.5187 L -268.49697 -3536.5187 C -269.60154 -3536.5187 -270.49697 -3537.414 -270.49697 -3538.5187 L -270.49697 -3547.3187 C -270.49697 -3548.4233 -269.60154 -3549.3187 -268.49697 -3549.3187 Z M -268.49697 -3548.5187 C -269.1597 -3548.5187 -269.69697 -3547.9814 -269.69697 -3547.3187 L -269.69697 -3538.5187 C -269.69697 -3537.856 -269.1597 -3537.3187 -268.49697 -3537.3187 L -256.49697 -3537.3187 C -255.83422 -3537.3187 -255.29697 -3537.856 -255.29697 -3538.5187 L -255.29697 -3544.9187 C -255.29697 -3545.5814 -255.83422 -3546.1187 -256.49697 -3546.1187 L -260.89697 -3546.1187 C -261.78062 -3546.1187 -262.49697 -3546.835 -262.49697 -3547.7187 C -262.49697 -3548.1605 -262.85514 -3548.5187 -263.29697 -3548.5187 Z" fill="#8eed62"/>
      </g>
    </g>
  </g>
</svg>
